X: 8799
T: Cuckoo, The
R: hornpipe
M: 4/4
K: Gmajor
B2 (3Bcd c2 c>e|(3ded g>e d>BG>F|E2 cB AGFG|(3ABA (3GFE D>d^c>d|
B>^AB>G c>Bc>A|d2 (3gfe d2 (3BAG|E>c (3cBc A2 (3GFG|(3ABA (3AGF G2:|
|:b>g (3gfg d>gB>g|bg (3gfg d2 a>b|c'a (3a^ga eaca|c'a (3a^ga e2 ga|
b2 (3gfg d2 (3Bcd|bgfg dgBg|a2 (3gag f2 (3efe|d2 (3cdc (3Bcd:|
B2 Bd c2 ce|d2 ge dBGF|E2 cB AGFG|A2 GE Dd^cd|
B^ABG cBcA|d2 ge d2 BG|EcBc A2 FG|A2 G2 G2:|
|:bgfg dgBg|bgfg d2 ab|c'a^ga eaca|c'a^ga e2 ga|
b2 ge d2 Bd|bgfg dgBg|a2 g2 f2 e2|d2 c2 B2:|

